assets/icons/24px/stroke/arrow-bend-right-up-24px.svg

<svg width="24" height="24" viewBox="0 0 24 24" fill="none" xmlns="http://www.w3.org/2000/svg">
<path fill-rule="evenodd" clip-rule="evenodd" d="M11.4912 15.2716C10.9826 15.4823 10.4029 15.5 8.68629 15.5H3C2.44772 15.5 2 15.9477 2 16.5C2 17.0523 2.44772 17.5 3 17.5H8.68629C8.75051 17.5 8.81388 17.5 8.87643 17.5001C10.3268 17.5008 11.3347 17.5012 12.2566 17.1194C13.1784 16.7376 13.8908 16.0245 14.9158 14.9985C14.9601 14.9542 15.0048 14.9094 15.0503 14.864L20 9.91422V15.5C20 16.0523 20.4477 16.5 21 16.5C21.5523 16.5 22 16.0523 22 15.5V7.5C22 6.94772 21.5523 6.5 21 6.5L13 6.5C12.4477 6.5 12 6.94772 12 7.5C12 8.05229 12.4477 8.5 13 8.5L18.5858 8.5L13.636 13.4498C12.4222 14.6636 11.9998 15.061 11.4912 15.2716Z" fill="white"/>
</svg>

<svg width="24" height="24" fill="none" xmlns="http://www.w3.org/2000/svg"><path fill-rule="evenodd" clip-rule="evenodd" d="M11.491 15.272c-.508.21-1.088.228-2.805.228H3a1 1 0 1 0 0 2h5.876c1.45 0 2.459.001 3.38-.38.922-.382 1.635-1.096 2.66-2.122l.134-.134L20 9.914V15.5a1 1 0 1 0 2 0v-8a1 1 0 0 0-1-1h-8a1 1 0 1 0 0 2h5.586l-4.95 4.95c-1.214 1.214-1.636 1.611-2.145 1.822z" fill="#fff"/></svg>
